;FLAVOR:Marlin
;TIME:2529
;Filament used: 1.9156m
;Layer height: 0.2
;MINX:93.517
;MINY:86.5
;MINZ:0.2
;MAXX:145.5
;MAXY:148.5
;MAXZ:14
;Generated with Cura_SteamEngine 4.7.1
M140 S50
M105
M190 S50
M104 S200
M105
M109 S200
M82 ;absolute extrusion mode
; Ender 3 Custom Start G-code
G92 E0 ; Reset Extruder
G28 ; Home all axes
G1 Z2.0 F3000 ; Move Z Axis up little to prevent scratching of Heat Bed
G1 X0.1 Y20 Z0.3 F5000.0 ; Move to start position
G1 X0.1 Y200.0 Z0.3 F1500.0 E15 ; Draw the first line
G1 X0.4 Y200.0 Z0.3 F5000.0 ; Move to side a little
G1 X0.4 Y20 Z0.3 F1500.0 E30 ; Draw the second line
G92 E0 ; Reset Extruder
G1 Z2.0 F3000 ; Move Z Axis up little to prevent scratching of Heat Bed
G1 X5 Y20 Z0.3 F5000.0 ; Move over to prevent blob squish
G92 E0
G92 E0
G1 F2700 E-5
;LAYER_COUNT:70
;LAYER:0
M107
G0 F6000 X96.712 Y89.766 Z0.2
;TYPE:SKIRT
G1 F2700 E0
G1 F1200 X97.401 Y89.129 E0.03121
G1 X98.14 Y88.553 E0.06237
G1 X98.927 Y88.041 E0.0936
G1 X99.753 Y87.599 E0.12476
G1 X100.615 Y87.228 E0.15597
G1 X101.505 Y86.933 E0.18716
G1 X102.417 Y86.714 E0.21835
G1 X103.344 Y86.574 E0.24953
G1 X104.249 Y86.513 E0.2797
G1 X104.648 Y86.503 E0.29298
G1 X104.924 Y86.5 E0.30216
G1 X128.952 Y86.501 E1.10133
G1 X129.792 Y86.513 E1.12927
G1 X130.323 Y86.534 E1.14695
G1 X130.706 Y86.558 E1.15971
G1 X131.346 Y86.616 E1.18109
G1 X131.494 Y86.634 E1.18605
G1 X132.023 Y86.712 E1.20383
G1 X132.385 Y86.774 E1.21605
G1 X133.079 Y86.916 E1.23961
G1 X133.251 Y86.957 E1.24549
G1 X133.706 Y87.076 E1.26113
G1 X134.051 Y87.174 E1.27306
G1 X134.643 Y87.36 E1.2937
G1 X134.773 Y87.405 E1.29827
G1 X135.251 Y87.583 E1.31524
G1 X135.627 Y87.733 E1.3287
G1 X136.311 Y88.033 E1.35354
G1 X136.436 Y88.093 E1.35816
G1 X136.846 Y88.301 E1.37345
G1 X137.169 Y88.473 E1.38562
G1 X137.658 Y88.75 E1.40431
G1 X137.788 Y88.828 E1.40935
G1 X138.224 Y89.103 E1.4265
G1 X138.52 Y89.3 E1.43832
G1 X139.093 Y89.709 E1.46174
G1 X139.236 Y89.818 E1.46772
G1 X139.604 Y90.11 E1.48334
G1 X139.866 Y90.328 E1.49468
G1 X140.288 Y90.699 E1.51337
G1 X140.417 Y90.818 E1.51921
G1 X140.862 Y91.252 E1.53988
G1 X141.105 Y91.503 E1.5515
G1 X141.498 Y91.931 E1.57083
G1 X141.599 Y92.047 E1.57594
G1 X141.966 Y92.491 E1.5951
G1 X142.218 Y92.813 E1.6087
G1 X142.641 Y93.392 E1.63255
G1 X142.699 Y93.477 E1.63597
G1 X142.904 Y93.787 E1.64833
G1 X143.117 Y94.123 E1.66157
G1 X143.434 Y94.658 E1.68225
G1 X143.502 Y94.78 E1.6869
G1 X143.777 Y95.306 E1.70664
G1 X143.948 Y95.656 E1.71959
G1 X144.201 Y96.213 E1.73994
G1 X144.252 Y96.334 E1.74431
G1 X144.436 Y96.799 E1.76094
G1 X144.564 Y97.146 E1.77324
G1 X144.777 Y97.781 E1.79552
G1 X144.83 Y97.957 E1.80163
G1 X144.965 Y98.446 E1.8185
G1 X145.048 Y98.776 E1.82982
G1 X145.2 Y99.475 E1.85361
G1 X145.244 Y99.715 E1.86173
G1 X145.321 Y100.2 E1.87806
G1 X145.362 Y100.498 E1.88807
G1 X145.431 Y101.129 E1.90918
G1 X145.442 Y101.268 E1.91382
G1 X145.468 Y101.724 E1.92901
G1 X145.487 Y102.231 E1.94588
G1 X145.494 Y102.51 E1.95517
G1 X145.5 Y103.055 E1.97329
G1 X145.499 Y131.957 E2.93458
G1 X145.486 Y132.83 E2.96362
G1 X145.462 Y133.404 E2.98273
G1 X145.438 Y133.761 E2.99463
G1 X145.387 Y134.318 E3.01323
G1 X145.371 Y134.453 E3.01775
G1 X145.288 Y135.022 E3.03688
G1 X145.223 Y135.4 E3.04963
G1 X145.087 Y136.066 E3.07224
G1 X145.048 Y136.231 E3.07788
G1 X144.912 Y136.751 E3.09576
G1 X144.813 Y137.094 E3.10763
G1 X144.646 Y137.622 E3.12605
G1 X144.592 Y137.779 E3.13157
G1 X144.419 Y138.247 E3.14817
G1 X144.294 Y138.563 E3.15947
G1 X144.019 Y139.198 E3.18249
G1 X143.948 Y139.349 E3.18804
G1 X143.712 Y139.822 E3.20562
G1 X143.537 Y140.152 E3.21804
G1 X143.251 Y140.657 E3.23734
G1 X143.167 Y140.797 E3.24277
G1 X142.883 Y141.247 E3.26047
G1 X142.692 Y141.533 E3.27191
G1 X142.285 Y142.101 E3.29515
G1 X142.175 Y142.245 E3.30118
G1 X141.89 Y142.604 E3.31643
G1 X141.677 Y142.86 E3.3275
G1 X141.292 Y143.297 E3.34687
G1 X141.167 Y143.432 E3.35299
G1 X140.778 Y143.833 E3.37157
G1 X140.532 Y144.073 E3.383
G1 X140.059 Y144.507 E3.40436
G1 X139.938 Y144.612 E3.40968
G1 X139.523 Y144.955 E3.42759
G1 X139.211 Y145.2 E3.44079
G1 X138.738 Y145.552 E3.4604
G1 X138.644 Y145.618 E3.46422
G1 X138.173 Y145.93 E3.48301
G1 X137.837 Y146.141 E3.4962
G1 X137.322 Y146.446 E3.51611
G1 X137.203 Y146.512 E3.52064
G1 X136.698 Y146.775 E3.53957
G1 X136.344 Y146.948 E3.55268
G1 X135.817 Y147.189 E3.57195
G1 X135.697 Y147.24 E3.57629
G1 X135.201 Y147.436 E3.59403
G1 X134.854 Y147.564 E3.60633
G1 X134.219 Y147.777 E3.62861
G1 X134.043 Y147.83 E3.63472
G1 X133.546 Y147.967 E3.65187
G1 X133.215 Y148.05 E3.66322
G1 X132.524 Y148.2 E3.68673
G1 X132.284 Y148.244 E3.69485
G1 X131.843 Y148.315 E3.70971
G1 X131.596 Y148.35 E3.718
G1 X131.038 Y148.415 E3.73669
G1 X130.849 Y148.432 E3.743
G1 X130.274 Y148.468 E3.76216
G1 X129.765 Y148.487 E3.7791
G1 X129.489 Y148.494 E3.78829
G1 X128.945 Y148.5 E3.80638
G1 X126.043 Y148.499 E3.9029
G1 X125.17 Y148.486 E3.93194
G1 X124.58 Y148.461 E3.95158
G1 X124.216 Y148.436 E3.96372
G1 X123.69 Y148.387 E3.98129
G1 X123.562 Y148.372 E3.98557
G1 X123.006 Y148.293 E4.00425
G1 X122.622 Y148.228 E4.01721
G1 X121.822 Y148.061 E4.04439
G1 X121.664 Y148.022 E4.0498
G1 X121.244 Y147.91 E4.06426
G1 X120.874 Y147.803 E4.07707
G1 X120.286 Y147.615 E4.0976
G1 X120.155 Y147.569 E4.10222
G1 X119.719 Y147.405 E4.11771
G1 X119.401 Y147.278 E4.1291
G1 X118.859 Y147.045 E4.14872
G1 X118.71 Y146.976 E4.15418
G1 X118.168 Y146.706 E4.17432
G1 X117.837 Y146.53 E4.18679
G1 X117.362 Y146.262 E4.20493
G1 X117.223 Y146.179 E4.21032
G1 X116.753 Y145.883 E4.22879
G1 X116.467 Y145.692 E4.24023
G1 X115.899 Y145.285 E4.26347
G1 X115.755 Y145.175 E4.2695
G1 X115.396 Y144.89 E4.28474
G1 X115.134 Y144.672 E4.29608
G1 X114.712 Y144.301 E4.31477
G1 X114.583 Y144.182 E4.32061
G1 X114.138 Y143.749 E4.34126
G1 X113.894 Y143.497 E4.35292
G1 X113.501 Y143.068 E4.37227
G1 X113.4 Y142.952 E4.37739
G1 X113.033 Y142.508 E4.39655
G1 X112.781 Y142.186 E4.41015
G1 X112.342 Y141.584 E4.43493
G1 X112.285 Y141.5 E4.43831
G1 X112.096 Y141.213 E4.44974
G1 X111.883 Y140.877 E4.46297
G1 X111.53 Y140.277 E4.48612
G1 X111.323 Y139.897 E4.50051
G1 X111.132 Y139.533 E4.51419
G1 X111.009 Y139.315 E4.52251
G1 X110.154 Y137.697 E4.58338
G1 X108.922 Y135.521 E4.66655
G1 X107.622 Y133.368 E4.7502
G1 X106.248 Y131.231 E4.8347
G1 X104.835 Y129.165 E4.91795
G1 X103.372 Y127.15 E5.00077
G1 X101.824 Y125.141 E5.08512
G1 X100.216 Y123.171 E5.1697
G1 X98.61 Y121.314 E5.25136
G1 X96.874 Y119.433 E5.33649
G1 X96.374 Y118.881 E5.36127
G1 X95.775 Y118.159 E5.39247
G1 X95.239 Y117.39 E5.42365
G1 X94.771 Y116.577 E5.45485
G1 X94.373 Y115.727 E5.48606
G1 X94.05 Y114.847 E5.51724
G1 X93.803 Y113.943 E5.54841
G1 X93.633 Y113.02 E5.57963
G1 X93.532 Y111.832 E5.61928
G1 X93.522 Y111.505 E5.63016
G1 X93.517 Y111.17 E5.64131
G1 X93.517 Y98.035 E6.07818
G1 X93.526 Y97.363 E6.10053
G1 X93.579 Y96.426 E6.13175
G1 X93.711 Y95.498 E6.16292
G1 X93.921 Y94.584 E6.19411
G1 X94.209 Y93.691 E6.22532
G1 X94.572 Y92.826 E6.25652
G1 X95.007 Y91.996 E6.28769
G1 X95.511 Y91.205 E6.31888
G1 X96.081 Y90.46 E6.35008
G1 X96.712 Y89.766 E6.38128
G0 F6000 X97.104 Y89.941
G1 F1200 X97.789 Y89.325 E6.41192
G1 X98.525 Y88.772 E6.44254
G1 X99.306 Y88.284 E6.47317
G1 X100.126 Y87.866 E6.50378
G1 X100.979 Y87.521 E6.53439
G1 X101.86 Y87.251 E6.56503
G1 X102.76 Y87.058 E6.59565
G1 X103.673 Y86.944 E6.62625
G1 X104.259 Y86.913 E6.64577
G1 X104.658 Y86.903 E6.65904
G1 X104.924 Y86.9 E6.66789
G1 X128.795 Y86.9 E7.46184
G1 X129.786 Y86.913 E7.49481
G1 X130.298 Y86.933 E7.51185
G1 X130.681 Y86.957 E7.52461
G1 X131.298 Y87.014 E7.54522
G1 X131.446 Y87.032 E7.55018
G1 X131.955 Y87.106 E7.56729
G1 X132.317 Y87.168 E7.5795
G1 X132.986 Y87.305 E7.60222
G1 X133.158 Y87.346 E7.6081
G1 X133.596 Y87.46 E7.62315
G1 X133.941 Y87.558 E7.63508
G1 X134.512 Y87.738 E7.65499
G1 X134.642 Y87.783 E7.65957
G1 X135.103 Y87.955 E7.67593
G1 X135.479 Y88.105 E7.6894
G1 X136.138 Y88.394 E7.71333
G1 X136.263 Y88.454 E7.71794
G1 X136.658 Y88.654 E7.73267
G1 X136.981 Y88.826 E7.74484
G1 X137.453 Y89.093 E7.76288
G1 X137.583 Y89.171 E7.76792
G1 X138.002 Y89.436 E7.78441
G1 X138.298 Y89.633 E7.79623
G1 X138.851 Y90.027 E7.81882
G1 X138.994 Y90.136 E7.8248
G1 X139.348 Y90.418 E7.83985
G1 X139.61 Y90.636 E7.85119
G1 X140.017 Y90.993 E7.86919
G1 X140.146 Y91.112 E7.87503
G1 X140.575 Y91.53 E7.89495
G1 X140.818 Y91.781 E7.90657
G1 X141.196 Y92.193 E7.92517
G1 X141.297 Y92.309 E7.93029
G1 X141.651 Y92.737 E7.94876
G1 X141.903 Y93.059 E7.96236
G1 X142.311 Y93.617 E7.98535
G1 X142.369 Y93.702 E7.98877
G1 X142.566 Y94.002 E8.00071
G1 X142.779 Y94.338 E8.01394
G1 X143.085 Y94.852 E8.03384
G1 X143.153 Y94.974 E8.03848
G1 X143.418 Y95.482 E8.05754
G1 X143.589 Y95.832 E8.0705
G1 X143.833 Y96.368 E8.09008
G1 X143.884 Y96.489 E8.09445
G1 X144.061 Y96.938 E8.1105
G1 X144.189 Y97.285 E8.1228
G1 X144.394 Y97.897 E8.14427
G1 X144.447 Y98.073 E8.15039
G1 X144.577 Y98.543 E8.1666
G1 X144.66 Y98.873 E8.17792
G1 X144.806 Y99.548 E8.20089
G1 X144.85 Y99.788 E8.20901
G1 X144.925 Y100.254 E8.22471
G1 X144.966 Y100.552 E8.23471
G1 X145.032 Y101.161 E8.25508
G1 X145.043 Y101.3 E8.25972
G1 X145.069 Y101.739 E8.27435
G1 X145.088 Y102.246 E8.29122
G1 X145.094 Y102.514 E8.30014
G1 X145.1 Y103.055 E8.31813
G1 X145.099 Y131.951 E9.27922
G1 X145.086 Y132.824 E9.30826
G1 X145.063 Y133.377 E9.32667
G1 X145.039 Y133.734 E9.33857
G1 X144.989 Y134.271 E9.35651
G1 X144.973 Y134.406 E9.36103
G1 X144.894 Y134.954 E9.37944
G1 X144.829 Y135.332 E9.3922
G1 X144.698 Y135.974 E9.41399
G1 X144.659 Y136.139 E9.41963
G1 X144.527 Y136.64 E9.43686
G1 X144.428 Y136.983 E9.44874
G1 X144.268 Y137.492 E9.46648
G1 X144.214 Y137.649 E9.47201
G1 X144.047 Y138.1 E9.488
G1 X143.922 Y138.416 E9.4993
G1 X143.658 Y139.027 E9.52144
G1 X143.587 Y139.178 E9.52699
G1 X143.359 Y139.634 E9.54395
G1 X143.184 Y139.964 E9.55637
G1 X142.908 Y140.452 E9.57502
G1 X142.824 Y140.592 E9.58045
G1 X142.55 Y141.025 E9.59749
G1 X142.359 Y141.311 E9.60893
G1 X141.968 Y141.859 E9.63132
G1 X141.858 Y142.003 E9.63735
G1 X141.582 Y142.348 E9.65204
G1 X141.369 Y142.604 E9.66312
G1 X140.999 Y143.026 E9.68179
G1 X140.874 Y143.161 E9.68791
G1 X140.498 Y143.546 E9.7058
G1 X140.252 Y143.786 E9.71724
G1 X139.797 Y144.205 E9.73781
G1 X139.676 Y144.31 E9.74314
G1 X139.276 Y144.641 E9.7604
G1 X138.964 Y144.886 E9.7736
G1 X138.508 Y145.224 E9.79248
G1 X138.414 Y145.29 E9.7963
G1 X137.96 Y145.592 E9.81443
G1 X137.624 Y145.803 E9.82763
G1 X137.128 Y146.096 E9.84679
G1 X137.009 Y146.162 E9.85132
G1 X136.522 Y146.416 E9.86958
G1 X136.168 Y146.589 E9.88269
G1 X135.66 Y146.821 E9.90126
G1 X135.54 Y146.872 E9.9056
G1 X135.062 Y147.061 E9.9227
G1 X134.715 Y147.189 E9.935
G1 X134.103 Y147.394 E9.95647
G1 X133.927 Y147.447 E9.96258
G1 X133.449 Y147.579 E9.97907
G1 X133.118 Y147.662 E9.99042
G1 X132.451 Y147.806 E10.01312
G1 X132.211 Y147.85 E10.02123
G1 X131.787 Y147.919 E10.03552
G1 X131.54 Y147.954 E10.04382
G1 X131.003 Y148.016 E10.0618
G1 X130.814 Y148.033 E10.06811
G1 X130.259 Y148.069 E10.08661
G1 X129.75 Y148.088 E10.10355
G1 X129.484 Y148.094 E10.1124
G1 X128.945 Y148.1 E10.13033
G1 X126.049 Y148.099 E10.22665
G1 X125.176 Y148.086 E10.25569
G1 X124.608 Y148.062 E10.2746
G1 X124.244 Y148.037 E10.28673
G1 X123.736 Y147.99 E10.3037
G1 X123.608 Y147.975 E10.30799
G1 X123.073 Y147.898 E10.32596
G1 X122.689 Y147.833 E10.33892
G1 X121.918 Y147.673 E10.36511
G1 X121.76 Y147.634 E10.37052
G1 X121.355 Y147.526 E10.38446
G1 X120.985 Y147.419 E10.39727
G1 X120.418 Y147.237 E10.41708
G1 X120.287 Y147.191 E10.4217
G1 X119.868 Y147.034 E10.43658
G1 X119.55 Y146.907 E10.44797
G1 X119.027 Y146.682 E10.4669
G1 X118.878 Y146.613 E10.47236
G1 X118.356 Y146.353 E10.49176
G1 X118.025 Y146.177 E10.50423
G1 X117.567 Y145.919 E10.52171
G1 X117.428 Y145.836 E10.5271
G1 X116.975 Y145.55 E10.54492
G1 X116.689 Y145.359 E10.55635
G1 X116.141 Y144.968 E10.57874
G1 X115.997 Y144.858 E10.58477
G1 X115.652 Y144.582 E10.59947
G1 X115.39 Y144.364 E10.6108
G1 X114.983 Y144.007 E10.62881
G1 X114.854 Y143.888 E10.63465
G1 X114.426 Y143.47 E10.65454
G1 X114.182 Y143.218 E10.66621
G1 X113.803 Y142.806 E10.68483
G1 X113.702 Y142.69 E10.68995
G1 X113.348 Y142.262 E10.70842
G1 X113.096 Y141.94 E10.72202
G1 X112.673 Y141.359 E10.74592
G1 X112.616 Y141.275 E10.7493
G1 X112.434 Y140.998 E10.76032
G1 X112.221 Y140.662 E10.77355
G1 X111.88 Y140.085 E10.79585
G1 X111.767 Y139.879 E10.80366
G1 X111.677 Y139.711 E10.81
G1 X111.425 Y139.232 E10.828
G1 X111.363 Y139.128 E10.83203
G1 X110.512 Y137.519 E10.89257
G1 X109.269 Y135.323 E10.9765
G1 X107.952 Y133.141 E11.06127
G1 X106.588 Y131.02 E11.14514
G1 X105.173 Y128.949 E11.22856
G1 X103.666 Y126.876 E11.3138
G1 X102.149 Y124.906 E11.3965
G1 X100.544 Y122.94 E11.48092
G1 X98.893 Y121.031 E11.56486
G1 X97.171 Y119.164 E11.64934
G1 X96.671 Y118.612 E11.67411
G1 X96.083 Y117.904 E11.70472
G1 X95.559 Y117.147 E11.73534
G1 X95.102 Y116.347 E11.76598
G1 X94.717 Y115.511 E11.7966
G1 X94.405 Y114.645 E11.82721
G1 X94.17 Y113.755 E11.85783
G1 X94.014 Y112.847 E11.88847
G1 X93.932 Y111.82 E11.92274
G1 X93.922 Y111.493 E11.93362
G1 X93.917 Y111.17 E11.94436
G1 X93.917 Y98.04 E12.38107
G1 X93.926 Y97.368 E12.40342
G1 X93.978 Y96.449 E12.43404
G1 X94.11 Y95.538 E12.46465
G1 X94.321 Y94.641 E12.4953
G1 X94.608 Y93.767 E12.5259
G1 X94.97 Y92.92 E12.55653
G1 X95.404 Y92.109 E12.58713
G1 X95.908 Y91.338 E12.61776
G1 X96.476 Y90.613 E12.6484
G1 X97.104 Y89.941 E12.67899
G0 F6000 X97.496 Y90.119
G1 F1200 X98.177 Y89.526 E12.70902
G1 X98.908 Y88.996 E12.73905
G1 X99.683 Y88.532 E12.7691
G1 X100.497 Y88.139 E12.79916
G1 X101.341 Y87.82 E12.82917
G1 X102.211 Y87.576 E12.85922
G1 X103.099 Y87.41 E12.88927
G1 X104.269 Y87.313 E12.92832
G1 X104.668 Y87.303 E12.94159
G1 X104.924 Y87.3 E12.95011
G1 X128.795 Y87.3 E13.74406
G1 X129.781 Y87.313 E13.77686
G1 X130.273 Y87.332 E13.79323
G1 X130.656 Y87.356 E13.806
G1 X131.249 Y87.411 E13.82581
G1 X131.397 Y87.429 E13.83077
G1 X131.888 Y87.5 E13.84727
G1 X132.25 Y87.562 E13.85948
G1 X132.893 Y87.694 E13.88131
G1 X133.065 Y87.735 E13.88719
G1 X133.487 Y87.845 E13.9017
G1 X133.832 Y87.943 E13.91363
G1 X134.382 Y88.116 E13.9328
G1 X134.512 Y88.161 E13.93738
G1 X134.954 Y88.326 E13.95307
G1 X135.33 Y88.476 E13.96654
G1 X135.965 Y88.754 E13.98959
G1 X136.09 Y88.814 E13.9942
G1 X136.47 Y89.007 E14.00838
G1 X136.793 Y89.179 E14.02055
G1 X137.247 Y89.436 E14.0379
G1 X137.377 Y89.514 E14.04294
G1 X137.78 Y89.769 E14.05881
G1 X138.076 Y89.966 E14.07063
G1 X138.608 Y90.345 E14.09236
G1 X138.751 Y90.454 E14.09834
G1 X139.092 Y90.725 E14.11282
G1 X139.354 Y90.943 E14.12416
G1 X139.746 Y91.287 E14.14151
G1 X139.875 Y91.406 E14.14734
G1 X140.287 Y91.808 E14.16649
G1 X140.53 Y92.059 E14.17811
G1 X140.895 Y92.456 E14.19605
G1 X140.996 Y92.572 E14.20116
G1 X141.336 Y92.984 E14.21893
G1 X141.588 Y93.306 E14.23253
G1 X141.98 Y93.843 E14.25464
G1 X142.038 Y93.928 E14.25806
G1 X142.228 Y94.216 E14.26954
G1 X142.441 Y94.552 E14.28277
G1 X142.736 Y95.047 E14.30194
G1 X142.804 Y95.169 E14.30658
G1 X143.059 Y95.657 E14.3249
G1 X143.23 Y96.007 E14.33785
G1 X143.464 Y96.523 E14.3567
G1 X143.515 Y96.644 E14.36106
G1 X143.686 Y97.076 E14.37652
G1 X143.814 Y97.423 E14.38882
G1 X144.011 Y98.012 E14.40948
G1 X144.064 Y98.188 E14.41559
G1 X144.189 Y98.641 E14.43122
G1 X144.272 Y98.971 E14.44254
G1 X144.413 Y99.62 E14.46463
G1 X144.457 Y99.86 E14.47274
G1 X144.529 Y100.309 E14.48787
G1 X144.57 Y100.607 E14.49787
G1 X144.633 Y101.192 E14.51744
G1 X144.644 Y101.331 E14.52208
G1 X144.669 Y101.754 E14.53617
G1 X144.688 Y102.261 E14.55305
G1 X144.694 Y102.519 E14.56163
G1 X144.7 Y103.055 E14.57946
G1 X144.699 Y131.945 E15.54034
G1 X144.686 Y132.818 E15.56938
G1 X144.664 Y133.35 E15.58709
G1 X144.64 Y133.707 E15.59899
G1 X144.592 Y134.223 E15.61623
G1 X144.576 Y134.358 E15.62075
G1 X144.499 Y134.887 E15.63853
G1 X144.434 Y135.265 E15.65129
G1 X144.308 Y135.882 E15.67223
G1 X144.269 Y136.047 E15.67787
G1 X144.143 Y136.53 E15.69447
G1 X144.044 Y136.873 E15.70635
G1 X143.889 Y137.362 E15.72341
G1 X143.835 Y137.519 E15.72893
G1 X143.675 Y137.953 E15.74432
G1 X143.55 Y138.269 E15.75562
G1 X143.296 Y138.857 E15.77692
